Assignment 1/res/luts/warm.CUBE
#Created by: Adobe Photoshop Export Color Lookup Plugin
TITLE "warm"
#LUT size
LUT_3D_SIZE 32
#data domain
DOMAIN_MIN 0.0 0.0 0.0
DOMAIN_MAX 1.0 1.0 1.0
#LUT data points
0.030243 0.152069 0.056274
0.033569 0.152252 0.054993
0.033569 0.152252 0.054993
0.032532 0.156311 0.054138
0.032532 0.156311 0.054138
0.032532 0.156311 0.054138
0.034851 0.160461 0.051727
0.034851 0.160461 0.051727
0.033722 0.164520 0.056183
0.033722 0.164520 0.056183
0.032593 0.168488 0.055267
0.035950 0.168732 0.053467
0.035950 0.168732 0.053467
0.034668 0.172729 0.052429
0.034668 0.172729 0.052429
0.036743 0.176941 0.049225
0.036743 0.176941 0.049225
0.035370 0.180969 0.048035
0.035370 0.180969 0.053955
0.035370 0.180969 0.053955
0.037384 0.185242 0.050323
0.037384 0.185242 0.050323
0.035919 0.189209 0.049072
0.035919 0.189209 0.049072
0.039307 0.189484 0.046112
0.037750 0.193451 0.044647
0.037750 0.193451 0.051300
0.036133 0.197479 0.049988
0.036133 0.197479 0.049988
0.036133 0.197479 0.049988
0.034607 0.201416 0.048645
0.034607 0.201416 0.048645
0.031525 0.160248 0.053314
0.031525 0.160248 0.053314
0.030518 0.164307 0.052460
0.033722 0.164520 0.050781
0.033722 0.164520 0.056183
0.032593 0.168488 0.055267
0.032593 0.168488 0.055267
0.034668 0.172729 0.052429
0.034668 0.172729 0.052429
0.033417 0.176727 0.051392
0.033417 0.176727 0.051392
0.036743 0.176941 0.055084
0.035370 0.180969 0.053955
0.035370 0.180969 0.053955
0.033997 0.184967 0.052826
0.037384 0.185242 0.050323
0.035919 0.189209 0.049072
0.035919 0.189209 0.049072
0.034454 0.193176 0.047791
0.037750 0.193451 0.051300
0.037750 0.193451 0.051300
0.036133 0.197479 0.049988
0.036133 0.197479 0.049988
0.034607 0.201416 0.048645
0.034607 0.201416 0.048645
0.034607 0.201416 0.048645
0.036133 0.205780 0.043579
0.036133 0.205780 0.043579
0.036133 0.205780 0.043579
0.034515 0.209717 0.042084
0.034515 0.209717 0.049133
0.034515 0.209717 0.049133
0.032593 0.168488 0.055267
0.032593 0.168488 0.055267
0.031433 0.172485 0.054352
0.034668 0.172729 0.052429
0.033417 0.176727 0.051392
0.033417 0.176727 0.051392
0.035370 0.180969 0.053955
0.035370 0.180969 0.048035
0.033997 0.184967 0.052826
0.033997 0.184967 0.052826
0.035919 0.189209 0.049072
0.035919 0.189209 0.049072
0.034454 0.193176 0.047791
0.037750 0.193451 0.044647
0.037750 0.193451 0.044647
0.036133 0.197479 0.049988
0.034607 0.201416 0.048645
0.034607 0.201416 0.048645
0.034607 0.201416 0.048645
0.036133 0.205780 0.043579
0.036133 0.205780 0.043579
0.036133 0.205780 0.043579
0.034515 0.209717 0.049133
0.034515 0.209717 0.049133
0.034515 0.209717 0.049133
0.032898 0.213715 0.047699
0.032898 0.213715 0.047699
0.032898 0.213715 0.047699
0.031372 0.217682 0.046326
0.031372 0.217682 0.046326
0.031372 0.217682 0.046326
0.031372 0.217682 0.046326
0.032166 0.180725 0.050385
0.035370 0.180969 0.053955
0.033997 0.184967 0.052826
0.033997 0.184967 0.052826
0.032654 0.188965 0.051727
0.035919 0.189209 0.049072
0.034454 0.193176 0.047791
0.034454 0.193176 0.047791
0.036133 0.197479 0.043182
0.036133 0.197479 0.049988
0.036133 0.197479 0.049988
0.034607 0.201416 0.048645
0.034607 0.201416 0.048645
0.033051 0.205475 0.047302
0.033051 0.205475 0.047302
0.034515 0.209717 0.042084
0.034515 0.209717 0.042084
0.034515 0.209717 0.042084
0.032898 0.213715 0.040588
0.032898 0.213715 0.047699
0.032898 0.213715 0.047699
0.031372 0.217682 0.046326
0.031372 0.217682 0.046326
0.031372 0.217682 0.046326
0.029877 0.221649 0.044922
0.029877 0.221649 0.044922
0.029877 0.221649 0.044922
0.028473 0.225586 0.043549
0.028473 0.225586 0.043549
0.028473 0.225586 0.043549
0.027100 0.229553 0.042236
0.027100 0.229553 0.049652
0.032654 0.188965 0.051727
0.034454 0.193176 0.047791
0.034454 0.193176 0.047791
0.032990 0.197205 0.046509
0.036133 0.197479 0.043182
0.034607 0.201416 0.041748
0.034607 0.201416 0.048645
0.033051 0.205475 0.047302
0.033051 0.205475 0.047302
0.033051 0.205475 0.047302
0.031555 0.209412 0.045929
0.031555 0.209412 0.045929
0.030121 0.213409 0.044586
0.030121 0.213409 0.044586
0.030121 0.213409 0.044586
0.028748 0.217377 0.043243
0.028748 0.217377 0.050110
0.031372 0.217682 0.046326
0.029877 0.221649 0.044922
0.029877 0.221649 0.044922
0.028473 0.225586 0.043549
0.028473 0.225586 0.043549
0.028473 0.225586 0.043549
0.027100 0.229553 0.042236
0.027100 0.229553 0.042236
0.027100 0.229553 0.042236
0.025818 0.233490 0.040985
0.025818 0.233490 0.048462
0.024597 0.237457 0.047302
0.024597 0.237457 0.047302
0.024597 0.237457 0.047302
0.023438 0.241364 0.046173
0.031586 0.201141 0.045197
0.034607 0.201416 0.048645
0.033051 0.205475 0.047302
0.033051 0.205475 0.047302
0.031555 0.209412 0.045929
0.031555 0.209412 0.045929
0.030121 0.213409 0.044586
0.030121 0.213409 0.044586
0.030121 0.213409 0.044586
0.028748 0.217377 0.043243
0.028748 0.217377 0.043243
0.027405 0.221344 0.041962
0.027405 0.221344 0.048889
0.027405 0.221344 0.048889
0.026123 0.225281 0.047699
0.026123 0.225281 0.047699
0.026123 0.225281 0.047699
0.024872 0.229248 0.046509
0.024872 0.229248 0.046509
0.024872 0.229248 0.046509
0.023682 0.233154 0.045380
0.023682 0.233154 0.045380
0.025818 0.233490 0.040985
0.024597 0.237457 0.039703
0.024597 0.237457 0.039703
0.023438 0.241364 0.038513
0.023438 0.241364 0.038513
0.022339 0.245300 0.045074
0.022339 0.245300 0.045074
0.022339 0.245300 0.045074
0.021332 0.249237 0.044067
0.023224 0.249573 0.039001
0.031555 0.209412 0.045929
0.030121 0.213409 0.044586
0.030121 0.213409 0.044586
0.028748 0.217377 0.043243
0.028748 0.217377 0.043243
0.027405 0.221344 0.041962
0.027405 0.221344 0.041962
0.027405 0.221344 0.041962
0.026123 0.225281 0.040710
0.026123 0.225281 0.047699
0.026123 0.225281 0.047699
0.024872 0.229248 0.046509
0.024872 0.229248 0.046509
0.024872 0.229248 0.046509
0.023682 0.233154 0.045380
0.023682 0.233154 0.045380
0.022552 0.237122 0.044250
0.022552 0.237122 0.044250
0.022552 0.237122 0.044250
0.021484 0.241028 0.043213
0.021484 0.241028 0.043213
0.022339 0.245300 0.037354
0.022339 0.245300 0.037354
0.021332 0.249237 0.036255
0.021332 0.249237 0.036255
0.021332 0.249237 0.044067
0.020386 0.253143 0.043152
0.020386 0.253143 0.043152
0.019562 0.257019 0.042297
0.021301 0.257385 0.036957
0.020477 0.261261 0.036041
0.020477 0.261261 0.036041
0.027405 0.221344 0.041962
0.027405 0.221344 0.041962
0.026123 0.225281 0.040710
0.026123 0.225281 0.040710
0.027100 0.229553 0.042236
0.027100 0.229553 0.042236
0.023682 0.233154 0.045380
0.025818 0.233490 0.040985
0.023682 0.233154 0.045380
0.022552 0.237122 0.044250
0.022552 0.237122 0.044250
0.022552 0.237122 0.044250
0.022552 0.237122 0.044250
0.021484 0.241028 0.043213
0.019684 0.240662 0.047394
0.019684 0.240662 0.047394
0.018768 0.244629 0.046509
0.018768 0.244629 0.046509
0.018768 0.244629 0.046509
0.017944 0.248566 0.045654
0.017944 0.248566 0.045654
0.017151 0.252441 0.044861
0.018707 0.252808 0.040405
0.018707 0.252808 0.040405
0.017944 0.256683 0.039551
0.017944 0.256683 0.039551
0.017273 0.260559 0.038818
0.017273 0.260559 0.046265
0.018158 0.264801 0.040833
0.018158 0.264801 0.040833
0.017609 0.268707 0.040222
0.017609 0.268707 0.040222
0.024872 0.229248 0.039429
0.023682 0.233154 0.038208
0.023682 0.233154 0.038208
0.022552 0.237122 0.044250
0.022552 0.237122 0.037018
0.022552 0.237122 0.037018
0.021484 0.241028 0.035858
0.021484 0.241028 0.035858
0.019684 0.240662 0.040527
0.019684 0.240662 0.047394
0.018768 0.244629 0.039551
0.018768 0.244629 0.039551
0.018768 0.244629 0.039551
0.017944 0.248566 0.045654
0.017944 0.248566 0.045654
0.017151 0.252441 0.044861
0.017151 0.252441 0.044861
0.017151 0.252441 0.044861
0.016449 0.256317 0.044128
0.016449 0.256317 0.044128
0.015839 0.260223 0.043457
0.015839 0.260223 0.043457
0.015839 0.260223 0.043457
0.015289 0.264099 0.042877
0.016693 0.264435 0.038147
0.016174 0.268341 0.037598
0.016174 0.268341 0.037598
0.015778 0.272186 0.044617
0.015778 0.272186 0.044617
0.015472 0.276093 0.044250
0.016846 0.276428 0.039276
0.016632 0.280273 0.039001
0.021484 0.241028 0.035858
0.021484 0.241028 0.035858
0.021484 0.241028 0.035858
0.020477 0.244965 0.034790
0.020477 0.244965 0.034790
0.019562 0.248901 0.041290
0.019562 0.248901 0.041290
0.017944 0.248566 0.038666
0.018707 0.252808 0.040405
0.017151 0.252441 0.044861
0.017151 0.252441 0.044861
0.016449 0.256317 0.044128
0.016449 0.256317 0.044128
0.015839 0.260223 0.043457
0.015839 0.260223 0.043457
0.015839 0.260223 0.043457
0.015289 0.264099 0.042877
0.015289 0.264099 0.042877
0.014832 0.267975 0.042389
0.014832 0.267975 0.042389
0.015778 0.272186 0.037109
0.015778 0.272186 0.037109
0.015472 0.276093 0.036713
0.015472 0.276093 0.044250
0.015289 0.279938 0.043976
0.015289 0.279938 0.043976
0.015228 0.283783 0.043823
0.015228 0.283783 0.043823
0.015167 0.287598 0.043701
0.015167 0.287598 0.043701
0.016449 0.291840 0.038544
0.016449 0.291840 0.038544
0.019562 0.248901 0.033813
0.018707 0.252808 0.040405
0.018707 0.252808 0.040405
0.017944 0.256683 0.039551
0.017944 0.256683 0.039551
0.017273 0.260559 0.038818
0.017273 0.260559 0.038818
0.017273 0.260559 0.038818
0.016693 0.264435 0.038147
0.016693 0.264435 0.038147
0.016174 0.268341 0.037598
0.016174 0.268341 0.037598
0.015778 0.272186 0.037109
0.015778 0.272186 0.037109
0.015778 0.272186 0.037109
0.015472 0.276093 0.044250
0.015472 0.276093 0.044250
0.015289 0.279938 0.043976
0.015289 0.279938 0.043976
0.015228 0.283783 0.043823
0.015228 0.283783 0.043823
0.016510 0.287933 0.038696
0.016510 0.287933 0.038696
0.016449 0.291840 0.038544
0.016449 0.291840 0.038544
0.016388 0.295654 0.038422
0.016388 0.295654 0.038422
0.016327 0.299530 0.045776
0.016327 0.299530 0.045776
0.016296 0.303345 0.045654
0.017609 0.307556 0.040405
0.017609 0.307556 0.040405
0.017944 0.256683 0.039551
0.017273 0.260559 0.038818
0.016693 0.264435 0.038147
0.016693 0.264435 0.038147
0.016174 0.268341 0.037598
0.016174 0.268341 0.037598
0.015778 0.272186 0.037109
0.015778 0.272186 0.037109
0.015472 0.276093 0.036713
0.015472 0.276093 0.044250
0.015289 0.279938 0.043976
0.015289 0.279938 0.043976
0.015228 0.283783 0.043823
0.015228 0.283783 0.043823
0.016510 0.287933 0.038696
0.016510 0.287933 0.038696
0.016449 0.291840 0.038544
0.016449 0.291840 0.038544
0.016388 0.295654 0.038422
0.016388 0.295654 0.038422
0.016327 0.299530 0.038300
0.016327 0.299530 0.038300
0.016296 0.303345 0.045654
0.016235 0.307220 0.045532
0.017609 0.307556 0.040405
0.017578 0.311371 0.040283
0.017578 0.311371 0.040283
0.017517 0.315216 0.040161
0.017517 0.315216 0.040161
0.017456 0.319061 0.040070
0.017456 0.319061 0.040070
0.018799 0.323242 0.042419
0.016174 0.268341 0.037598
0.015778 0.272186 0.037109
0.015778 0.272186 0.037109
0.015472 0.276093 0.036713
0.015289 0.279938 0.043976
0.015289 0.279938 0.043976
0.016541 0.284119 0.038818
0.016541 0.284119 0.038818
0.016510 0.287933 0.038696
0.016449 0.291840 0.038544
0.016449 0.291840 0.038544
0.016388 0.295654 0.038422
0.016388 0.295654 0.038422
0.016327 0.299530 0.038300
0.016327 0.299530 0.038300
0.016296 0.303345 0.045654
0.017670 0.303680 0.040527
0.017609 0.307556 0.040405
0.017609 0.307556 0.040405
0.017578 0.311371 0.040283
0.017517 0.315216 0.040161
0.017517 0.315216 0.040161
0.017456 0.319061 0.040070
0.017456 0.319061 0.040070
0.018799 0.323242 0.034271
0.018768 0.327087 0.042297
0.018768 0.327087 0.042297
0.018707 0.330963 0.042175
0.018707 0.330963 0.042175
0.018646 0.334778 0.042084
0.020172 0.335114 0.036163
0.020111 0.338959 0.036072
0.016632 0.280273 0.031036
0.016541 0.284119 0.038818
0.016510 0.287933 0.038696
0.016510 0.287933 0.038696
0.016449 0.291840 0.038544
0.016449 0.291840 0.038544
0.016388 0.295654 0.038422
0.016388 0.295654 0.038422
0.016327 0.299530 0.038300
0.017670 0.303680 0.040527
0.017670 0.303680 0.040527
0.017609 0.307556 0.040405
0.017609 0.307556 0.040405
0.017578 0.311371 0.040283
0.017517 0.315216 0.040161
0.017517 0.315216 0.040161
0.017456 0.319061 0.040070
0.017456 0.319061 0.040070
0.017426 0.322937 0.039948
0.018799 0.323242 0.042419
0.018768 0.327087 0.042297
0.018707 0.330963 0.042175
0.018707 0.330963 0.042175
0.018646 0.334778 0.042084
0.018616 0.338654 0.041992
0.020111 0.338959 0.036072
0.020050 0.342804 0.035980
0.020050 0.342804 0.035980
0.019989 0.346680 0.044098
0.019989 0.346680 0.044098
0.019958 0.350525 0.044006
0.019897 0.354370 0.043915
0.016449 0.291840 0.038544
0.016449 0.291840 0.038544
0.016388 0.295654 0.038422
0.016388 0.295654 0.038422
0.016327 0.299530 0.038300
0.016296 0.303345 0.038177
0.016296 0.303345 0.045654
0.017609 0.307556 0.040405
0.017578 0.311371 0.040283
0.017578 0.311371 0.040283
0.017517 0.315216 0.040161
0.017456 0.319061 0.040070
0.017456 0.319061 0.040070
0.017426 0.322937 0.039948
0.018768 0.327087 0.034180
0.018768 0.327087 0.042297
0.018707 0.330963 0.042175
0.018646 0.334778 0.042084
0.018646 0.334778 0.042084
0.018616 0.338654 0.041992
0.020111 0.338959 0.036072
0.020050 0.342804 0.035980
0.019989 0.346680 0.035858
0.019989 0.346680 0.044098
0.019958 0.350525 0.044006
0.019958 0.350525 0.044006
0.019897 0.354370 0.043915
0.021362 0.358521 0.037964
0.021362 0.358521 0.037964
0.021332 0.362366 0.037872
0.021332 0.362366 0.037872
0.021271 0.366241 0.037781
0.016327 0.299530 0.038300
0.016327 0.299530 0.038300
0.016296 0.303345 0.038177
0.016235 0.307220 0.038086
0.017609 0.307556 0.040405
0.017578 0.311371 0.040283
0.017517 0.315216 0.040161
0.017517 0.315216 0.040161
0.017456 0.319061 0.040070
0.017426 0.322937 0.039948
0.017426 0.322937 0.039948
0.017365 0.326752 0.039856
0.018707 0.330963 0.034088
0.018707 0.330963 0.042175
0.018646 0.334778 0.042084
0.018616 0.338654 0.041992
0.018616 0.338654 0.041992
0.018555 0.342499 0.041870
0.018524 0.346344 0.041779
0.018524 0.346344 0.041779
0.019958 0.350525 0.035797
0.019958 0.350525 0.044006
0.019897 0.354370 0.043915
0.019867 0.358215 0.043823
0.019867 0.358215 0.043823
0.019806 0.362061 0.043732
0.019806 0.362061 0.043732
0.021271 0.366241 0.037781
0.019745 0.369781 0.043549
0.019745 0.369781 0.043549
0.021179 0.373932 0.045868
0.021179 0.373932 0.045868
0.017609 0.307556 0.032440
0.017609 0.307556 0.032440
0.017578 0.311371 0.040283
0.017517 0.315216 0.040161
0.017517 0.315216 0.040161
0.017456 0.319061 0.040070
0.017426 0.322937 0.039948
0.017426 0.322937 0.039948
0.018768 0.327087 0.034180
0.018707 0.330963 0.034088
0.018707 0.330963 0.042175
0.018646 0.334778 0.042084
0.018616 0.338654 0.041992
0.018616 0.338654 0.041992
0.018555 0.342499 0.041870
0.018524 0.346344 0.041779
0.018524 0.346344 0.041779
0.018494 0.350189 0.041687
0.019897 0.354370 0.043915
0.019897 0.354370 0.043915
0.019867 0.358215 0.043823
0.019806 0.362061 0.043732
0.019806 0.362061 0.043732
0.019775 0.365936 0.043640
0.019775 0.365936 0.043640
0.019745 0.369781 0.043549
0.019684 0.373627 0.043457
0.021179 0.373932 0.037598
0.021149 0.377808 0.045776
0.021149 0.377808 0.045776
0.021088 0.381622 0.045715
0.021057 0.385498 0.045624
0.017578 0.311371 0.040283
0.017517 0.315216 0.040161
0.017517 0.315216 0.040161
0.017456 0.319061 0.040070
0.018799 0.323242 0.034271
0.018768 0.327087 0.034180
0.018768 0.327087 0.034180
0.018707 0.330963 0.042175
0.018646 0.334778 0.042084
0.018646 0.334778 0.042084
0.018616 0.338654 0.041992
0.018555 0.342499 0.041870
0.020050 0.342804 0.035980
0.019989 0.346680 0.035858
0.019958 0.350525 0.035797
0.019958 0.350525 0.035797
0.019897 0.354370 0.043915
0.019867 0.358215 0.043823
0.019867 0.358215 0.043823
0.019806 0.362061 0.043732
0.019775 0.365936 0.043640
0.019775 0.365936 0.043640
0.019745 0.369781 0.043549
0.019684 0.373627 0.043457
0.021179 0.373932 0.037598
0.021149 0.377808 0.045776
0.021088 0.381622 0.045715
0.021088 0.381622 0.045715
0.021057 0.385498 0.045624
0.021057 0.385498 0.045624
0.021027 0.389343 0.045532
0.020966 0.393219 0.045441
0.017517 0.315216 0.040161
0.018860 0.319397 0.034393
0.018860 0.319397 0.034393
0.018799 0.323242 0.034271
0.018768 0.327087 0.034180
0.018707 0.330963 0.042175
0.018707 0.330963 0.042175
0.018646 0.334778 0.042084
0.018616 0.338654 0.041992
0.020050 0.342804 0.035980
0.020050 0.342804 0.035980
0.019989 0.346680 0.035858
0.019958 0.350525 0.044006
0.019958 0.350525 0.035797
0.019897 0.354370 0.043915
0.019867 0.358215 0.043823
0.019867 0.358215 0.043823
0.019806 0.362061 0.043732
0.019775 0.365936 0.043640
0.019775 0.365936 0.043640
0.019745 0.369781 0.043549
0.019684 0.373627 0.043457
0.021179 0.373932 0.045868
0.021149 0.377808 0.045776
0.021088 0.381622 0.045715
0.021088 0.381622 0.045715
0.021057 0.385498 0.045624
0.021057 0.385498 0.045624
0.021027 0.389343 0.045532
0.022522 0.393494 0.039520
0.022522 0.393494 0.039520
0.022491 0.397339 0.039459
0.017517 0.315216 0.040161
0.017456 0.319061 0.040070
0.018799 0.323242 0.034271
0.018799 0.323242 0.034271
0.018768 0.327087 0.042297
0.913727 0.913727 0.913727
1.000000 1.000000 1.000000
1.000000 1.000000 1.000000
0.643127 0.643127 0.643127
0.356873 0.356873 0.356873
0.200012 0.200012 0.200012
0.082336 0.082336 0.082336
0.081818 0.086700 0.081818
0.086700 0.086700 0.081818
0.085510 0.095245 0.080505
0.120361 0.115417 0.079407
0.021332 0.362366 0.037872
0.021332 0.362366 0.037872
0.021271 0.366241 0.037781
0.021240 0.370087 0.037689
0.021240 0.370087 0.045990
0.021179 0.373932 0.045868
0.021149 0.377808 0.045776
0.021149 0.377808 0.045776
0.021088 0.381622 0.045715
0.021057 0.385498 0.045624
0.021057 0.385498 0.045624
0.021027 0.389343 0.045532
0.020966 0.393219 0.045441
0.020966 0.393219 0.045441
0.022491 0.397339 0.039459
0.022491 0.397339 0.047760
0.937256 0.937256 0.937256
1.000000 1.000000 1.000000
1.000000 1.000000 1.000000
1.000000 1.000000 1.000000
0.686279 0.686279 0.686279
0.450989 0.450989 0.450989
0.352936 0.352936 0.352936
0.262756 0.262756 0.262756
0.192169 0.192169 0.192169
0.168640 0.168640 0.168640
0.152954 0.152954 0.152954
0.141174 0.141174 0.141174
0.125488 0.125488 0.125488
0.113739 0.113739 0.113739
0.105896 0.105896 0.105896
0.094116 0.094116 0.094116
0.082336 0.082336 0.082336
0.082336 0.082336 0.082336
0.082336 0.082336 0.082336
0.082336 0.082336 0.082336
0.082336 0.082336 0.082336
0.082336 0.082336 0.082336
0.082336 0.082336 0.082336
0.082336 0.082336 0.082336
0.082336 0.082336 0.082336
0.082336 0.082336 0.082336
0.082336 0.082336 0.082336
0.082336 0.082336 0.082336
0.082336 0.082336 0.082336
0.082336 0.082336 0.082336
0.082336 0.082336 0.082336
0.082336 0.082336 0.082336
0.255341 0.355377 0.557007
0.109894 0.175659 0.279968
0.056091 0.065460 0.083618
0.603912 0.603912 0.603912
0.517639 0.517639 0.517639
0.368622 0.368622 0.368622
0.262756 0.262756 0.262756
0.223541 0.223541 0.223541
0.188232 0.188232 0.188232
0.176483 0.176483 0.176483
0.168640 0.168640 0.168640
0.164703 0.164703 0.164703
0.154480 0.161865 0.154480
0.152954 0.152954 0.152954
0.149017 0.149017 0.149017
0.141174 0.141174 0.141174
0.137268 0.137268 0.137268
0.133331 0.133331 0.133331
0.121582 0.121582 0.121582
0.109772 0.109772 0.109772
0.098022 0.098022 0.098022
0.086304 0.086304 0.086304
0.082336 0.082336 0.082336
0.081818 0.086700 0.081818
0.081818 0.086700 0.081818
0.081818 0.086700 0.081818
0.081818 0.086700 0.081818
0.081818 0.086700 0.081818
0.081818 0.086700 0.081818
0.086700 0.086700 0.081818
0.086151 0.091003 0.081207
0.086151 0.091003 0.081207
0.101959 0.131866 0.195770
0.101959 0.131866 0.195770
0.104645 0.127045 0.191528
0.097656 0.125977 0.187378
0.898041 0.898041 0.898041
0.279297 0.279297 0.295868
0.212372 0.225098 0.225098
0.207855 0.207855 0.207855
0.181396 0.154968 0.149628
0.148438 0.042694 0.042694
0.133667 0.002533 0.002533
0.129761 0.002594 0.002594
0.129761 0.002594 0.002594
0.125793 0.002655 0.002655
0.117950 0.002777 0.002777
0.114014 0.002838 0.002838
0.106201 0.002960 0.002960
0.102234 0.002991 0.002991
0.094391 0.003113 0.003113
0.086548 0.003204 0.003204
0.074738 0.003357 0.003357
0.066681 0.003937 0.000000
0.066681 0.003937 0.000000
0.066895 0.003448 0.003448
0.066895 0.003448 0.003448
0.066895 0.003448 0.003448
0.070831 0.003387 0.003387
0.070618 0.000000 0.000000
0.043640 0.019287 0.015228
0.085785 0.116180 0.080536
0.088989 0.124603 0.078247
0.093231 0.128723 0.077057
0.099854 0.128906 0.191589
0.102478 0.124176 0.187317
0.097809 0.124908 0.178894
0.349030 0.349030 0.349030
0.231384 0.231384 0.231384
0.207855 0.207855 0.207855
0.188232 0.188232 0.188232
0.164703 0.164703 0.164703
0.156860 0.156860 0.156860
0.149017 0.149017 0.149017
0.145111 0.145111 0.145111
0.137268 0.137268 0.137268
0.133331 0.133331 0.133331
0.125488 0.125488 0.125488
0.121582 0.121582 0.121582
0.109772 0.109772 0.109772
0.098022 0.098022 0.098022
0.086304 0.086304 0.086304
0.082336 0.082336 0.082336
0.082336 0.082336 0.082336
0.081818 0.086700 0.081818
0.081818 0.086700 0.081818
0.081818 0.086700 0.081818
0.080505 0.095245 0.080505
0.083984 0.103699 0.078827
0.439209 0.439209 0.439209
0.082336 0.082336 0.082336
0.132904 0.086456 0.081665
0.170380 0.170380 0.074860
0.081726 0.190796 0.061249
0.082642 0.215393 0.052551
0.081635 0.247681 0.039368
0.729401 0.729401 0.729401
0.494110 0.494110 0.494110
0.247070 0.247070 0.247070
0.082336 0.082336 0.082336
0.082336 0.082336 0.082336
0.111938 0.084869 0.084869
0.194672 0.085388 0.067932
0.247681 0.128174 0.059265
0.149017 0.149017 0.149017
0.133331 0.133331 0.133331
0.117645 0.117645 0.117645
0.098022 0.098022 0.098022
0.082336 0.082336 0.082336
0.082336 0.082336 0.082336
0.082336 0.082336 0.082336
0.486267 0.486267 0.486267
0.082336 0.082336 0.082336
0.103699 0.094574 0.080658
0.118927 0.255554 0.035828
0.082336 0.082336 0.082336
0.082336 0.082336 0.082336
0.081818 0.086700 0.081818
0.084778 0.099487 0.079681
0.083130 0.107910 0.077911
0.084778 0.120361 0.079407
0.081940 0.145386 0.076080
0.085205 0.170166 0.066498
0.083435 0.203003 0.055206
0.098511 0.352814 0.032776
0.217560 0.477173 0.041229
0.019806 0.362061 0.043732
0.019775 0.365936 0.043640
0.760773 0.760773 0.760773
0.764709 0.764709 0.764709
0.773407 0.773407 0.767151
0.769684 0.782013 0.769684
0.519073 0.662994 0.753693
0.057465 0.350281 0.506042
0.062683 0.344788 0.502808
0.064972 0.357361 0.510742
0.153625 0.319000 0.534210
0.745758 0.010101 0.081665
0.808136 0.006042 0.018463
0.667053 0.004028 0.051971
0.388824 0.009979 0.002014
0.137268 0.007843 0.000000
0.066681 0.003937 0.000000
0.086548 0.003204 0.003204
0.157837 0.095703 0.080261
0.170288 0.132324 0.081238
0.085632 0.137054 0.074524
0.085205 0.170166 0.066498
0.085266 0.259460 0.034302
0.018707 0.330963 0.042175
0.018707 0.330963 0.042175
0.018646 0.334778 0.042084
0.018616 0.338654 0.041992
0.018616 0.338654 0.041992
0.018555 0.342499 0.041870
0.018555 0.342499 0.041870
0.018524 0.346344 0.041779
0.018494 0.350189 0.049347
0.019958 0.350525 0.044006
0.019897 0.354370 0.043915
0.745087 0.745087 0.745087
0.729401 0.729401 0.729401
0.737244 0.737244 0.737244
0.741180 0.741180 0.741180
0.741180 0.741180 0.741180
0.741180 0.741180 0.741180
0.741180 0.741180 0.741180
0.741180 0.741180 0.741180
0.737671 0.737671 0.750824
0.217316 0.436432 0.552490
0.046509 0.321228 0.454742
0.053711 0.318695 0.463318
0.513428 0.069275 0.187622
0.616272 0.004761 0.004761
0.627930 0.004059 0.004059
0.643433 0.002655 0.026276
0.970062 0.919373 0.915131
1.000000 1.000000 1.000000
1.000000 1.000000 1.000000
1.000000 1.000000 1.000000
1.000000 1.000000 1.000000
1.000000 0.289154 0.289154
0.706146 0.015320 0.003326
0.389008 0.002747 0.006744
0.105896 0.003937 0.000000
0.070831 0.003387 0.003387
0.090485 0.003174 0.003174
0.119080 0.149536 0.074615
0.018646 0.334778 0.042084
0.018646 0.334778 0.042084
0.018616 0.338654 0.041992
0.018555 0.342499 0.041870
0.843140 0.843140 0.843140
0.907013 0.893982 0.893982
0.082336 0.082336 0.082336
0.082336 0.082336 0.082336
0.083649 0.124603 0.078247
0.016693 0.264435 0.038147
0.016693 0.264435 0.038147
0.016174 0.268341 0.037598
0.015778 0.272186 0.037109
0.717651 0.717651 0.717651
0.721558 0.721558 0.721558
0.721558 0.721558 0.721558
0.725494 0.725494 0.725494
0.731293 0.726288 0.721252
0.735229 0.730194 0.725189
0.171722 0.413971 0.542969
0.046753 0.312805 0.447083
0.068237 0.299561 0.434357
