Assignment 1/res/luts/warm.CUBE
#Created by: Adobe Photoshop Export Color Lookup Plugin
TITLE "warm"
#LUT size
LUT_3D_SIZE 8
#data domain
#LUT data points
DOMAIN_MIN 0.000000 0.000000 0.000000
DOMAIN_MAX 0.903226 0.903226 0.903226
0.030243 0.152069 0.056274
0.032532 0.156311 0.054138
0.033722 0.164520 0.056183
0.035950 0.168732 0.053467
0.036743 0.176941 0.049225
0.037384 0.185242 0.050323
0.039307 0.189484 0.046112
0.036133 0.197479 0.049988
0.032654 0.188965 0.051727
0.036133 0.197479 0.043182
0.033051 0.205475 0.047302
0.030121 0.213409 0.044586
0.028748 0.217377 0.050110
0.028473 0.225586 0.043549
0.027100 0.229553 0.042236
0.024597 0.237457 0.047302
0.024872 0.229248 0.039429
0.022552 0.237122 0.037018
0.019684 0.240662 0.040527
0.018768 0.244629 0.039551
0.017151 0.252441 0.044861
0.015839 0.260223 0.043457
0.016693 0.264435 0.038147
0.015778 0.272186 0.044617
0.016174 0.268341 0.037598
0.015289 0.279938 0.043976
0.016510 0.287933 0.038696
0.016388 0.295654 0.038422
0.017670 0.303680 0.040527
0.017517 0.315216 0.040161
0.018799 0.323242 0.034271
0.018707 0.330963 0.042175
0.017609 0.307556 0.032440
0.017517 0.315216 0.040161
0.018768 0.327087 0.034180
0.018616 0.338654 0.041992
0.018524 0.346344 0.041779
0.019867 0.358215 0.043823
0.019775 0.365936 0.043640
0.021149 0.377808 0.045776
0.937256 0.937256 0.937256
0.686279 0.686279 0.686279
0.192169 0.192169 0.192169
0.125488 0.125488 0.125488
0.082336 0.082336 0.082336
0.082336 0.082336 0.082336
0.082336 0.082336 0.082336
0.082336 0.082336 0.082336
0.729401 0.729401 0.729401
0.082336 0.082336 0.082336
0.149017 0.149017 0.149017
0.082336 0.082336 0.082336
0.082336 0.082336 0.082336
0.082336 0.082336 0.082336
0.084778 0.120361 0.079407
0.098511 0.352814 0.032776
0.709808 0.709808 0.709808
0.729401 0.729401 0.729401
0.992249 0.980194 0.984222
0.016174 0.268341 0.037598
0.016632 0.280273 0.039001
0.709808 0.709808 0.709808
0.534943 0.010681 0.032501
0.873291 0.883301 0.883301
0.030243 0.152069 0.056274
0.032532 0.156311 0.054138
0.033722 0.164520 0.056183
0.034668 0.172729 0.052429
0.036743 0.176941 0.055084
0.037384 0.185242 0.050323
0.037750 0.193451 0.044647
0.036133 0.197479 0.049988
0.031342 0.192902 0.050629
0.034607 0.201416 0.041748
0.033051 0.205475 0.047302
0.030121 0.213409 0.044586
0.028748 0.217377 0.050110
0.028473 0.225586 0.043549
0.027100 0.229553 0.042236
0.024597 0.237457 0.047302
0.024872 0.229248 0.039429
0.022552 0.237122 0.037018
0.019684 0.240662 0.040527
0.017944 0.248566 0.038666
0.017151 0.252441 0.044861
0.015839 0.260223 0.043457
0.016174 0.268341 0.037598
0.015472 0.276093 0.044250
0.015778 0.272186 0.037109
0.015289 0.279938 0.043976
0.016510 0.287933 0.038696
0.016327 0.299530 0.038300
0.017609 0.307556 0.040405
0.017517 0.315216 0.040161
0.018799 0.323242 0.042419
0.018646 0.334778 0.042084
0.017609 0.307556 0.040405
0.017456 0.319061 0.040070
0.017365 0.326752 0.047394
0.018616 0.338654 0.041992
0.018494 0.350189 0.041687
0.019867 0.358215 0.043823
0.021240 0.370087 0.037689
0.021149 0.377808 0.045776
1.000000 1.000000 1.000000
0.564697 0.564697 0.564697
0.188232 0.188232 0.188232
0.133331 0.133331 0.133331
0.089600 0.094574 0.089600
0.082336 0.082336 0.082336
0.082336 0.082336 0.082336
0.082336 0.082336 0.082336
0.874512 0.874512 0.874512
0.082336 0.082336 0.082336
0.247345 0.106995 0.054901
0.082336 0.082336 0.082336
0.093781 0.161957 0.069916
0.082336 0.082336 0.082336
0.086792 0.132904 0.075806
0.019867 0.358215 0.043823
0.709808 0.709808 0.709808
0.721558 0.721558 0.721558
0.751312 0.751312 0.757751
0.016174 0.268341 0.037598
0.016846 0.276428 0.039276
0.016510 0.287933 0.038696
0.098541 0.255951 0.402710
0.878418 0.878418 0.878418
0.033569 0.152252 0.054993
0.031525 0.160248 0.053314
0.033722 0.164520 0.056183
0.034668 0.172729 0.052429
0.035370 0.180969 0.053955
0.035919 0.189209 0.049072
0.037750 0.193451 0.051300
0.034607 0.201416 0.048645
0.034454 0.193176 0.047791
0.034607 0.201416 0.041748
0.031555 0.209412 0.045929
0.030121 0.213409 0.044586
0.027405 0.221344 0.048889
0.028473 0.225586 0.043549
0.025818 0.233490 0.040985
0.024597 0.237457 0.047302
0.023682 0.233154 0.038208
0.022552 0.237122 0.037018
0.018768 0.244629 0.039551
0.017944 0.248566 0.038666
0.016449 0.256317 0.044128
0.015839 0.260223 0.043457
0.016174 0.268341 0.037598
0.015472 0.276093 0.044250
0.015778 0.272186 0.037109
0.016632 0.280273 0.039001
0.016449 0.291840 0.038544
0.016327 0.299530 0.045776
0.017609 0.307556 0.040405
0.017456 0.319061 0.040070
0.018768 0.327087 0.042297
0.018646 0.334778 0.042084
0.016235 0.307220 0.038086
0.017456 0.319061 0.040070
0.018707 0.330963 0.034088
0.018616 0.338654 0.041992
0.018494 0.350189 0.041687
0.019867 0.358215 0.043823
0.021240 0.370087 0.037689
0.021149 0.377808 0.045776
1.000000 1.000000 1.000000
0.466675 0.466675 0.466675
0.184326 0.184326 0.184326
0.145111 0.145111 0.145111
0.105896 0.105896 0.105896
0.082336 0.082336 0.082336
0.082336 0.082336 0.082336
0.082336 0.082336 0.082336
0.858826 0.858826 0.858826
0.244598 0.328278 0.369110
0.161957 0.089600 0.079071
0.082336 0.082336 0.082336
0.110901 0.239716 0.043274
0.081207 0.091003 0.081207
0.086334 0.149536 0.074615
0.019897 0.354370 0.043915
0.705872 0.705872 0.705872
0.717651 0.717651 0.717651
0.737244 0.737244 0.737244
0.016693 0.264435 0.038147
0.016846 0.276428 0.039276
0.016541 0.284119 0.038818
0.044495 0.300293 0.439087
0.795959 0.582489 0.588013
0.032532 0.156311 0.054138
0.031525 0.160248 0.053314
0.032593 0.168488 0.055267
0.034668 0.172729 0.052429
0.035370 0.180969 0.053955
0.035919 0.189209 0.049072
0.037750 0.193451 0.051300
0.034607 0.201416 0.048645
0.034454 0.193176 0.047791
0.034607 0.201416 0.048645
0.031555 0.209412 0.045929
0.030121 0.213409 0.044586
0.027405 0.221344 0.048889
0.028473 0.225586 0.043549
0.025818 0.233490 0.040985
0.024597 0.237457 0.047302
0.023682 0.233154 0.038208
0.022552 0.237122 0.037018
0.018768 0.244629 0.039551
0.017944 0.248566 0.038666
0.016449 0.256317 0.044128
0.015289 0.264099 0.042877
0.015778 0.272186 0.037109
0.015472 0.276093 0.044250
0.015472 0.276093 0.036713
0.016541 0.284119 0.038818
0.016449 0.291840 0.038544
0.016327 0.299530 0.038300
0.017578 0.311371 0.040283
0.017456 0.319061 0.040070
0.018768 0.327087 0.042297
0.020111 0.338959 0.036072
0.016235 0.307220 0.038086
0.017456 0.319061 0.040070
0.018707 0.330963 0.042175
0.018616 0.338654 0.041992
0.018494 0.350189 0.041687
0.019806 0.362061 0.043732
0.021240 0.370087 0.037689
0.021088 0.381622 0.045715
1.000000 1.000000 1.000000
0.435303 0.435303 0.435303
0.184326 0.184326 0.184326
0.149017 0.149017 0.149017
0.117645 0.117645 0.117645
0.082336 0.082336 0.082336
0.082336 0.082336 0.082336
0.082336 0.082336 0.082336
0.819611 0.819611 0.819611
0.057678 0.355682 0.498413
0.018707 0.035156 0.047577
0.082336 0.082336 0.082336
0.082336 0.082336 0.082336
0.084778 0.099487 0.079681
0.085205 0.170166 0.066498
0.019897 0.354370 0.035706
0.705872 0.705872 0.705872
0.537262 0.537262 0.537262
0.729401 0.729401 0.729401
0.016693 0.264435 0.038147
0.015778 0.272186 0.037109
0.016541 0.284119 0.038818
0.255890 0.457336 0.572723
0.573212 0.012695 0.004791
0.032532 0.156311 0.054138
0.031525 0.160248 0.053314
0.032593 0.168488 0.055267
0.033417 0.176727 0.051392
0.035370 0.180969 0.053955
0.035919 0.189209 0.049072
0.036133 0.197479 0.049988
0.034607 0.201416 0.048645
0.032990 0.197205 0.046509
0.033051 0.205475 0.047302
0.031555 0.209412 0.045929
0.028748 0.217377 0.043243
0.027405 0.221344 0.048889
0.027100 0.229553 0.042236
0.025818 0.233490 0.040985
0.023438 0.241364 0.046173
0.023682 0.233154 0.038208
0.021484 0.241028 0.035858
0.018768 0.244629 0.039551
0.017151 0.252441 0.044861
0.016449 0.256317 0.044128
0.015289 0.264099 0.042877
0.015778 0.272186 0.037109
0.015289 0.279938 0.043976
0.016846 0.276428 0.031311
0.016541 0.284119 0.038818
0.016449 0.291840 0.038544
0.016296 0.303345 0.038177
0.017578 0.311371 0.040283
0.017456 0.319061 0.040070
0.018707 0.330963 0.042175
0.020111 0.338959 0.036072
0.016235 0.307220 0.038086
0.017456 0.319061 0.040070
0.018707 0.330963 0.042175
0.018555 0.342499 0.041870
0.019958 0.350525 0.035797
0.019806 0.362061 0.043732
0.021240 0.370087 0.037689
0.021088 0.381622 0.045715
1.000000 1.000000 1.000000
0.407837 0.407837 0.407837
0.188232 0.188232 0.188232
0.152954 0.152954 0.152954
0.125488 0.125488 0.125488
0.082336 0.082336 0.082336
0.082336 0.082336 0.082336
0.082336 0.082336 0.082336
0.793671 0.805389 0.805389
0.083344 0.399597 0.593201
0.018707 0.035156 0.047577
0.190979 0.147491 0.077881
0.082336 0.082336 0.082336
0.083130 0.107910 0.077911
0.083405 0.267273 0.031708
0.019897 0.354370 0.035706
0.690186 0.690186 0.690186
0.709808 0.709808 0.709808
0.725494 0.725494 0.725494
0.856628 0.861786 0.872070
0.015778 0.272186 0.037109
0.016632 0.280273 0.039001
0.017853 0.292175 0.032898
0.569336 0.004791 0.004791
0.032532 0.156311 0.054138
0.031525 0.160248 0.053314
0.032593 0.168488 0.055267
0.036743 0.176941 0.049225
0.033997 0.184967 0.052826
0.039307 0.189484 0.046112
0.036133 0.197479 0.049988
0.036133 0.205780 0.043579
0.032990 0.197205 0.046509
0.033051 0.205475 0.047302
0.030121 0.213409 0.044586
0.028748 0.217377 0.043243
0.027405 0.221344 0.048889
0.027100 0.229553 0.042236
0.025818 0.233490 0.040985
0.023438 0.241364 0.046173
0.022552 0.237122 0.037018
0.021484 0.241028 0.035858
0.017944 0.248566 0.045654
0.017151 0.252441 0.044861
0.015839 0.260223 0.043457
0.014832 0.267975 0.042389
0.015778 0.272186 0.037109
0.015289 0.279938 0.043976
0.016846 0.276428 0.039276
0.016510 0.287933 0.038696
0.016388 0.295654 0.038422
0.017670 0.303680 0.040527
0.017578 0.311371 0.040283
0.017426 0.322937 0.039948
0.018707 0.330963 0.042175
0.020050 0.342804 0.044220
0.017609 0.307556 0.040405
0.017456 0.319061 0.040070
0.018707 0.330963 0.042175
0.018555 0.342499 0.041870
0.019897 0.354370 0.035706
0.019806 0.362061 0.043732
0.019684 0.373627 0.043457
0.021088 0.381622 0.045715
1.000000 1.000000 1.000000
0.380402 0.380402 0.380402
0.192169 0.192169 0.192169
0.156860 0.156860 0.156860
0.133331 0.133331 0.133331
0.082336 0.082336 0.082336
0.082336 0.082336 0.082336
0.082336 0.082336 0.082336
0.789032 0.782990 0.789032
0.069702 0.405548 0.526611
0.027100 0.186981 0.258423
0.166077 0.088501 0.077820
0.082336 0.082336 0.082336
0.083649 0.124603 0.078247
0.018555 0.342499 0.041870
0.018494 0.350189 0.049347
0.020782 0.228607 0.040680
0.705872 0.705872 0.705872
0.717651 0.717651 0.717651
0.612579 0.011200 0.006927
0.016174 0.268341 0.037598
0.016632 0.280273 0.039001
0.016510 0.287933 0.038696
0.478455 0.026276 0.077454
0.032532 0.156311 0.054138
0.033722 0.164520 0.050781
0.035950 0.168732 0.053467
0.036743 0.176941 0.049225
0.033997 0.184967 0.052826
0.037750 0.193451 0.044647
0.036133 0.197479 0.049988
0.036133 0.205780 0.043579
0.032990 0.197205 0.046509
0.033051 0.205475 0.047302
0.030121 0.213409 0.044586
0.028748 0.217377 0.043243
0.026123 0.225281 0.047699
0.024872 0.229248 0.046509
0.024597 0.237457 0.039703
0.023438 0.241364 0.046173
0.022552 0.237122 0.037018
0.020477 0.244965 0.034790
0.017944 0.248566 0.038666
0.016449 0.256317 0.044128
0.015839 0.260223 0.043457
0.014832 0.267975 0.042389
0.015472 0.276093 0.036713
0.015228 0.283783 0.043823
0.016632 0.280273 0.039001
0.016510 0.287933 0.038696
0.016388 0.295654 0.038422
0.017609 0.307556 0.040405
0.017517 0.315216 0.040161
0.017426 0.322937 0.039948
0.018646 0.334778 0.042084
0.020050 0.342804 0.044220
0.017578 0.311371 0.040283
0.017456 0.319061 0.040070
0.018707 0.330963 0.042175
0.018555 0.342499 0.041870
0.019897 0.354370 0.043915
0.019806 0.362061 0.043732
0.021179 0.373932 0.037598
0.021088 0.381622 0.045715
1.000000 1.000000 1.000000
0.376465 0.376465 0.376465
0.192169 0.192169 0.192169
0.160797 0.160797 0.160797
0.137268 0.137268 0.137268
0.086304 0.086304 0.086304
0.082336 0.082336 0.082336
0.082336 0.082336 0.082336
0.776459 0.776459 0.776459
0.068329 0.354340 0.491974
0.080627 0.366791 0.520172
0.074524 0.000000 0.000000
0.082336 0.082336 0.082336
0.084442 0.141235 0.073212
0.018616 0.338654 0.041992
0.018494 0.350189 0.049347
0.018982 0.228302 0.044281
0.705872 0.705872 0.705872
0.713715 0.713715 0.713715
0.596527 0.007294 0.003357
0.016174 0.268341 0.037598
0.016846 0.276428 0.039276
0.016510 0.287933 0.038696
0.052338 0.294891 0.428589
0.031525 0.160248 0.053314
0.033722 0.164520 0.056183
0.034668 0.172729 0.052429
0.035370 0.180969 0.053955
0.037384 0.185242 0.050323
0.037750 0.193451 0.044647
0.034607 0.201416 0.048645
0.036133 0.205780 0.043579
0.031586 0.201141 0.045197
0.031555 0.209412 0.045929
0.030121 0.213409 0.044586
0.027405 0.221344 0.041962
0.026123 0.225281 0.047699
0.024872 0.229248 0.046509
0.024597 0.237457 0.039703
0.022339 0.245300 0.045074
0.022552 0.237122 0.037018
0.020477 0.244965 0.034790
0.017944 0.248566 0.038666
0.016449 0.256317 0.044128
0.015289 0.264099 0.042877
0.014832 0.267975 0.042389
0.015472 0.276093 0.044250
0.015228 0.283783 0.043823
0.016632 0.280273 0.031036
0.016510 0.287933 0.038696
0.016327 0.299530 0.038300
0.017609 0.307556 0.040405
0.017517 0.315216 0.040161
0.018768 0.327087 0.042297
0.018646 0.334778 0.042084
0.020050 0.342804 0.044220
0.017578 0.311371 0.040283
0.017426 0.322937 0.039948
0.018707 0.330963 0.042175
0.018555 0.342499 0.041870
0.019897 0.354370 0.043915
0.019775 0.365936 0.043640
0.021179 0.373932 0.037598
0.021057 0.385498 0.045624
0.705872 0.705872 0.705872
0.364716 0.364716 0.364716
0.188232 0.188232 0.188232
0.156860 0.156860 0.156860
0.137268 0.137268 0.137268
0.090210 0.090210 0.090210
0.082336 0.082336 0.082336
0.081818 0.086700 0.081818
0.768616 0.768616 0.768616
0.073822 0.353638 0.488739
0.087891 0.423462 0.620392
0.066681 0.003937 0.000000
0.162323 0.182770 0.069183
0.085205 0.170166 0.066498
0.018616 0.338654 0.041992
0.018494 0.350189 0.041687
0.019928 0.224304 0.045197
0.698029 0.698029 0.698029
0.705872 0.705872 0.705872
0.584869 0.004059 0.012115
0.016174 0.268341 0.037598
0.016846 0.276428 0.031311
0.016541 0.284119 0.038818
0.016388 0.295654 0.038422
