Assignment 1/res/luts/warm.CUBE
#Created by: Adobe Photoshop Export Color Lookup Plugin
TITLE "warm"
#LUT size
LUT_3D_SIZE 5
#data domain
#LUT data points
DOMAIN_MIN 0.000000 0.000000 0.000000
DOMAIN_MAX 0.903226 0.903226 0.903226
0.030243 0.152069 0.056274
0.034851 0.160461 0.051727
0.034668 0.172729 0.052429
0.037384 0.185242 0.050323
0.036133 0.197479 0.049988
0.027405 0.221344 0.041962
0.025818 0.233490 0.040985
0.019684 0.240662 0.047394
0.017151 0.252441 0.044861
0.018158 0.264801 0.040833
0.016449 0.291840 0.038544
0.017609 0.307556 0.040405
0.018768 0.327087 0.034180
0.020050 0.342804 0.035980
0.021362 0.358521 0.037964
0.255341 0.355377 0.557007
0.223541 0.223541 0.223541
0.149017 0.149017 0.149017
0.086304 0.086304 0.086304
0.081818 0.086700 0.081818
0.709808 0.709808 0.709808
0.756134 0.749664 0.762512
0.015778 0.272186 0.037109
0.566956 0.645721 0.682861
0.873291 0.883301 0.883301
0.030243 0.152069 0.056274
0.033722 0.164520 0.056183
0.036743 0.176941 0.049225
0.035919 0.189209 0.049072
0.034607 0.201416 0.048645
0.027405 0.221344 0.041962
0.023682 0.233154 0.045380
0.019684 0.240662 0.047394
0.017151 0.252441 0.044861
0.016693 0.264435 0.038147
0.016449 0.291840 0.038544
0.017578 0.311371 0.040283
0.018768 0.327087 0.034180
0.019989 0.346680 0.035858
0.021332 0.362366 0.037872
0.105469 0.157684 0.259247
0.045837 0.054718 0.063416
0.149017 0.149017 0.149017
0.089600 0.094574 0.089600
0.085510 0.095245 0.080505
0.705872 0.705872 0.705872
0.733337 0.733337 0.733337
0.015778 0.272186 0.037109
0.016510 0.287933 0.038696
0.838531 0.770935 0.775848
0.032532 0.156311 0.054138
0.033722 0.164520 0.056183
0.036743 0.176941 0.055084
0.035919 0.189209 0.049072
0.034607 0.201416 0.048645
0.026123 0.225281 0.040710
0.022552 0.237122 0.044250
0.018768 0.244629 0.046509
0.017151 0.252441 0.044861
0.016174 0.268341 0.045074
0.016388 0.295654 0.038422
0.017578 0.311371 0.040283
0.018707 0.330963 0.042175
0.019989 0.346680 0.035858
0.021332 0.362366 0.037872
0.103973 0.134766 0.200012
0.045837 0.059113 0.063416
0.152954 0.152954 0.152954
0.093414 0.098541 0.093414
0.084778 0.099487 0.079681
0.701965 0.701965 0.701965
0.721558 0.721558 0.721558
0.016174 0.268341 0.037598
0.016541 0.284119 0.038818
0.588593 0.002655 0.014679
0.032532 0.156311 0.054138
0.032593 0.168488 0.055267
0.035370 0.180969 0.053955
0.037750 0.193451 0.044647
0.036133 0.205780 0.043579
0.024872 0.229248 0.039429
0.022552 0.237122 0.044250
0.018768 0.244629 0.046509
0.016449 0.256317 0.044128
0.016174 0.268341 0.045074
0.016388 0.295654 0.038422
0.017517 0.315216 0.040161
0.018707 0.330963 0.042175
0.019958 0.350525 0.044006
0.021271 0.366241 0.037781
0.099854 0.135712 0.191589
0.052399 0.079651 0.066193
0.149017 0.149017 0.149017
0.089600 0.094574 0.089600
0.083984 0.103699 0.078827
0.020782 0.228607 0.040680
0.713715 0.713715 0.713715
0.016693 0.264435 0.038147
0.016632 0.280273 0.039001
0.394836 0.081909 0.176880
0.031525 0.160248 0.053314
0.032593 0.168488 0.055267
0.033997 0.184967 0.052826
0.036133 0.197479 0.049988
0.036133 0.205780 0.043579
0.024872 0.229248 0.039429
0.021484 0.241028 0.035858
0.017944 0.248566 0.045654
0.015839 0.260223 0.043457
0.015778 0.272186 0.044617
0.016388 0.295654 0.038422
0.017517 0.315216 0.040161
0.018646 0.334778 0.042084
0.019958 0.350525 0.044006
0.021271 0.366241 0.037781
0.101959 0.131866 0.195770
0.198303 0.209290 0.198303
0.132904 0.077423 0.072723
0.066895 0.003448 0.003448
0.055237 0.011139 0.007233
0.019928 0.224304 0.045197
0.705872 0.705872 0.705872
0.066681 0.000000 0.000000
0.016846 0.276428 0.039276
0.016388 0.295654 0.038422
